src/assets/icons/microsoft.svg

<svg t="1750062743567" class="icon" viewBox="0 0 1024 1024" version="1.1" xmlns="http://www.w3.org/2000/svg" p-id="39446" width="200" height="200"><path d="M99.555556 99.555556h391.964444v391.964444H99.555556V99.555556z" fill="#F25022" p-id="39447"></path><path d="M532.48 99.555556H924.444444v391.964444H532.48V99.555556z" fill="#7FBA00" p-id="39448"></path><path d="M99.555556 532.48h391.964444V924.444444H99.555556V532.48z" fill="#00A4EF" p-id="39449"></path><path d="M532.48 532.48H924.444444V924.444444H532.48V532.48z" fill="#FFB900" p-id="39450"></path></svg>

<svg xmlns="http://www.w3.org/2000/svg" width="200" height="200" class="icon" viewBox="0 0 1024 1024"><path fill="#f25022" d="M99.556 99.556H491.52V491.52H99.556z"/><path fill="#7fba00" d="M532.48 99.556h391.964V491.52H532.48z"/><path fill="#00a4ef" d="M99.556 532.48H491.52v391.964H99.556z"/><path fill="#ffb900" d="M532.48 532.48h391.964v391.964H532.48z"/></svg>
